packages/ckeditor5-icons/theme/icons/ai-translate.svg

<svg viewBox="0 0 20 20" xmlns="http://www.w3.org/2000/svg">
<path fill-rule="evenodd" clip-rule="evenodd" d="M19.0008 19H17.5135L16.2254 15.5H10.3758L8.9881 19H7.50079L12.4578 7H14.0438L19.0008 19ZM10.8709 14.2998H15.6307L13.2508 8.5L10.8709 14.2998Z"/>
<path d="M5.64825 0.5C6.06234 0.50015 6.39825 0.836856 6.39825 1.25098V2.2002H10.7488C11.1627 2.20057 11.4988 2.53622 11.4988 2.9502C11.4988 3.36418 11.1627 3.69982 10.7488 3.7002H9.48517C9.14849 5.51783 8.23059 8.08135 6.42267 10.6182C6.65733 10.8678 6.84313 11.0521 6.98224 11.1807C7.0958 11.2856 7.17811 11.3546 7.22736 11.3945C7.25131 11.414 7.26762 11.4271 7.27618 11.4336L7.27716 11.4346C7.61661 11.6714 7.7001 12.1389 7.46368 12.4785C7.2268 12.8181 6.75943 12.9017 6.41974 12.665L6.41876 12.6641L6.41583 12.6631L6.41193 12.6602C6.40912 12.6581 6.40584 12.655 6.40216 12.6523C6.39467 12.6469 6.38487 12.6401 6.37384 12.6318C6.35104 12.6146 6.31976 12.5902 6.28204 12.5596C6.20635 12.4982 6.10044 12.4077 5.96466 12.2822C5.8351 12.1625 5.67775 12.0099 5.49298 11.8193C4.14787 13.4252 3.39912 14.0999 1.117 15.4033C0.756217 15.6062 0.298767 15.4787 0.0955201 15.1182C-0.107414 14.7573 0.020112 14.2999 0.380676 14.0967C2.39913 13.0999 3.23284 12.2187 4.49103 10.6768C3.94494 9.93904 3.50895 9.04003 3.2049 8.32031C3.02298 7.88966 2.88008 7.50416 2.78302 7.22656C2.7345 7.08778 2.69725 6.97433 2.67169 6.89551C2.65903 6.85645 2.64915 6.82526 2.6424 6.80371C2.63904 6.79307 2.63545 6.7843 2.63361 6.77832C2.63277 6.77557 2.63165 6.77148 2.63165 6.77148L2.63068 6.76855L2.61212 6.69336C2.53915 6.32041 2.75921 5.94483 3.13068 5.83203C3.50201 5.7195 3.89317 5.90941 4.03986 6.25977L4.06622 6.33203L4.0672 6.33594C4.06839 6.33979 4.07043 6.34707 4.07306 6.35547C4.07844 6.37262 4.08735 6.39937 4.09845 6.43359C4.12085 6.50267 4.15472 6.60467 4.19904 6.73145C4.28817 6.98638 4.41981 7.34116 4.58673 7.73633C4.82019 8.28896 5.1118 8.88837 5.43927 9.40527C6.85911 7.31413 7.62809 5.14711 7.95294 3.7002H0.948059C0.534064 3.69994 0.198059 3.36425 0.198059 2.9502C0.198059 2.53614 0.534064 2.20045 0.948059 2.2002H4.89825V1.25098C4.89825 0.836771 5.23405 0.500014 5.64825 0.5Z"/>
<path d="M16.9412 1.86914C17.145 2.41983 17.579 2.85382 18.1297 3.05762L19.9988 3.75L18.1297 4.44141C17.5792 4.64512 17.1451 5.07942 16.9412 5.62988L16.2488 7.5L15.5574 5.62988C15.3536 5.07942 14.9194 4.64517 14.369 4.44141L12.4988 3.75L14.369 3.05762C14.9195 2.85376 15.3537 2.41971 15.5574 1.86914L16.2488 0L16.9412 1.86914Z"/>
</svg>

<svg xmlns="http://www.w3.org/2000/svg" viewBox="0 0 20 20"><path fill-rule="evenodd" d="M19 19h-1.486l-1.289-3.5h-5.85L8.989 19H7.501l4.957-12h1.586zm-8.13-4.7h4.76l-2.38-5.8z" clip-rule="evenodd"/><path d="M5.648.5c.414 0 .75.337.75.751v.95h4.35a.75.75 0 0 1 0 1.5H9.486c-.337 1.817-1.254 4.38-3.062 6.917.234.25.42.434.56.563a5 5 0 0 0 .293.253h.001a.75.75 0 0 1-.857 1.231H6.42l-.003-.002-.004-.003-.01-.008-.028-.02-.092-.072a7 7 0 0 1-.317-.278 12 12 0 0 1-.472-.463c-1.345 1.606-2.094 2.28-4.376 3.584a.75.75 0 0 1-.736-1.306c2.018-.997 2.852-1.878 4.11-3.42-.546-.738-.982-1.637-1.286-2.357a19 19 0 0 1-.563-1.516l-.008-.026-.002-.007-.001-.002-.019-.076A.75.75 0 0 1 4.04 6.26l.026.072.001.004.006.02.025.078.101.297c.09.255.22.61.388 1.005.233.553.525 1.152.852 1.67C6.86 7.313 7.63 5.146 7.953 3.7H.948a.75.75 0 0 1 0-1.5h3.95v-.949A.75.75 0 0 1 5.648.5m11.293 1.37c.204.55.638.984 1.189 1.188l1.869.692-1.87.691c-.55.204-.984.638-1.188 1.189L16.25 7.5l-.692-1.87a2.01 2.01 0 0 0-1.188-1.19l-1.87-.691 1.87-.692c.55-.204.985-.638 1.188-1.189L16.25 0z"/></svg>
